src/actions/symbolic/display-outline-alt-symbolic.svg

<svg width="16" height="16" version="1.1" viewBox="0 0 16 16" xmlns="http://www.w3.org/2000/svg">
 <path d="m13.5 0a2.5 2.5 0 0 0-2.5 2.5 2.5 2.5 0 0 0 2.5 2.5 2.5 2.5 0 0 0 2.5-2.5 2.5 2.5 0 0 0-2.5-2.5zm0 1a1.5 1.5 0 0 1 1.5 1.5 1.5 1.5 0 0 1-1.5 1.5 1.5 1.5 0 0 1-1.5-1.5 1.5 1.5 0 0 1 1.5-1.5z" fill="#363636" opacity=".5"/>
 <path d="m7.9883 4c-1.6509 0-3 1.3491-3 3s1.3491 3 3 3 3-1.3491 3-3-1.3491-3-3-3zm0 1c1.1105 0 2 0.88951 2 2s-0.88951 2-2 2c-1.1105 0-2-0.88951-2-2s0.88951-2 2-2z" fill="#363636"/>
 <path d="m3 1c-1.662 0-3 1.338-3 3v6c0 1.662 1.338 3 3 3h10c1.662 0 3-1.338 3-3v-5.0625a3.5 3.5 0 0 1-1 0.7207v4.3418c0 1.108-0.892 2-2 2h-10c-1.108 0-2-0.892-2-2v-6c0-1.108 0.892-2 2-2h7.0352a3.5 3.5 0 0 1 0.30664-1z" fill="#363636"/>
 <rect x="4" y="14" width="8" height="1" rx=".5" ry=".5" fill="#363636" stroke-linecap="round" stroke-linejoin="round" stroke-width="1.0016"/>
</svg>

<svg xmlns="http://www.w3.org/2000/svg" width="16" height="16">
    <path fill="#050505" d="M13.5 0A2.5 2.5 0 0 0 11 2.5 2.5 2.5 0 0 0 13.5 5 2.5 2.5 0 0 0 16 2.5 2.5 2.5 0 0 0 13.5 0zm0 1A1.5 1.5 0 0 1 15 2.5 1.5 1.5 0 0 1 13.5 4 1.5 1.5 0 0 1 12 2.5 1.5 1.5 0 0 1 13.5 1z" opacity=".5"/>
    <path fill="#050505" fill-opacity=".7" d="M7.988 4c-1.65 0-3 1.35-3 3s1.35 3 3 3 3-1.35 3-3-1.349-3-3-3zm0 1c1.11 0 2 .89 2 2s-.89 2-2 2c-1.11 0-2-.89-2-2s.89-2 2-2z"/>
    <path fill="#050505" fill-opacity=".7" d="M3 1C1.338 1 0 2.338 0 4v6c0 1.662 1.338 3 3 3h10c1.662 0 3-1.338 3-3V4.938a3.5 3.5 0 0 1-1 .72V10c0 1.108-.892 2-2 2H3c-1.108 0-2-.892-2-2V4c0-1.108.892-2 2-2h7.035a3.5 3.5 0 0 1 .307-1z"/>
    <rect width="8" height="1" x="4" y="14" fill="#050505" fill-opacity=".7" rx=".5" ry=".5"/>
</svg>
